X: 07009
T: BELOV'S JIG
C: Bob McQuillen 25 June 89
B: Bob's Note Book 7 #9
%R: jig
Z: 2020 John Chambers <jc:trillian.mit.edu>
M: 6/8
L: 1/8
K: G	% and Em
D \
| G3  A3  | GBd d2c | Bcd dBG | EFG AFD |\
| GAB AGF | GBd d2c | Bcd dBG | AGF G2 :|
|: F \
| E2G FGA | GAB cBA | BcB AGF | EFG F2G |\
| E2G FGA | GAB cBA | BcB AGF | GEE E2 :|
%%begintext align
%% Anne Belov hails from
%% Seattle; she plays a mean hammer dulcimer and
%% tells good jokes and plays the music with Julie
%% King and a whole bunch of other local enthusiasts -
%% I can't wait to hear what this tune sounds like on your
%% dulcimer, Anne - I hope you like it!
%%endtext

%%sep 1 1 500

%%sep 1 1 500

